img/avatar-hover.svg

<svg width="20" height="18" viewBox="0 0 20 18" fill="none" xmlns="http://www.w3.org/2000/svg">
<path d="M17.881 14.166C15.737 13.431 13.625 12.5 12.674 11.776C12.017 11.275 11.904 10.158 12.157 9.361C13.275 8.458 14.021 6.884 14.021 5.083C14.021 2.276 12.221 0 10 0C7.77902 0 5.97901 2.276 5.97901 5.083C5.97901 6.884 6.72501 8.457 7.84201 9.36C8.09501 10.158 7.98302 11.275 7.32502 11.776C6.37502 12.5 4.26201 13.43 2.11801 14.166C-0.0259852 14.902 1.48343e-05 18 1.48343e-05 18H20C20 18 20.025 14.901 17.881 14.166Z" fill="#3D546F"/>
</svg>

<svg width="20" height="18" fill="none" xmlns="http://www.w3.org/2000/svg"><path d="M17.88 14.17c-2.14-.74-4.25-1.67-5.2-2.4-.66-.5-.78-1.61-.52-2.4a5.49 5.49 0 001.86-4.29C14.02 2.28 12.22 0 10 0 7.78 0 5.98 2.28 5.98 5.08c0 1.8.75 3.38 1.86 4.28.26.8.14 1.92-.51 2.42-.95.72-3.07 1.65-5.21 2.39C-.03 14.9 0 18 0 18h20s.02-3.1-2.12-3.83z" fill="#3D546F"/></svg>
